X:1
T: The Widow Magee
C:
R:Jig
Q:180
K:A
M:6/8
L:1/16
E2|A2B2A2 a4f2|e2c2A2 B4A2|F2B2B2 B2c2d2|c2B2A2 F4E2|A2B2A2 a4f2|e2c2A2 c2d2e2|f2g2a2 e2c2e2|d2c2B2 A4e2|
f4f2 e4c2|a4a2 g4e2|a2b2a2 g4e2|f6 e4e2|f4f2 e4c2|a4a2 g4e2|a4a2 g4f2|e2f2c2 c2d2e2|
f4f2 e4c2|a4a2 g4e2|a2b2a2 g4e2|f6 e4e2|f4f2 e4c2|a4a2 g4e2|a4a2 g4f2|e2f2c2 c2d2B2|
A2B2A2 a4f2|e2c2A2 B4A2|F2B2B2 B2c2d2|c2B2A2 F4E2|A2B2A2 a4f2|e2c2A2 c2d2e2|f2g2a2 e2c2e2|d2c2B2 A4||
